X: 091
T: the Marquis of Granby's March.
%R: march
Z: 2017 John Chambers <jc:trillian.mit.edu>
B: John Treat - "Gamut for the Fifes", 1779, p.8 #1
F: https://archive.org/details/GamutFortheFifes
N: The final :||: is unclear. Should both strains be repeated?
M: C
L: 1/8
K: D
% - - - - - - - - - - - - - - - - - - - - - - - - -
A |\
d3A d3A | d>cd>e f>ee2 |\
f>ef>g a2g>f | e2e>e Te2 |][|\
e>de>f e2A2 | e>de>f a4 |\
f>ef>g b2g>f | e3d d3 :|
% - - - - - - - - - - - - - - - - - - - - - - - - -
